logo/flickr.svg

<?xml version="1.0" encoding="UTF-8"?>
<svg width="512px" height="160px" viewBox="0 0 512 160" version="1.1" xmlns="http://www.w3.org/2000/svg" preserveAspectRatio="xMidYMid">
    <title>Flickr</title>
    <g>
        <path d="M510.160259,79.5648112 C506.056836,78.3129872 501.949413,78.3129872 497.63802,78.3129872 C480.384446,78.3129872 470.721805,90.9392117 470.721805,112.024247 L470.721805,157.485854 L433.782999,157.485854 L433.782999,49.8089956 L467.458264,49.8089956 L467.458264,69.6502054 L467.850209,69.6502054 C474.229312,55.9961255 483.472012,47.317346 499.48576,47.317346 C503.793154,47.317346 508.320517,47.9292599 512,48.56917 L510.160259,79.5648112" fill="#FF0082"></path>
        <path d="M311.316221,2.45565467 L348.283023,2.45565467 L348.283023,95.0666313 L348.682966,95.0666313 L379.490634,49.8089956 L419.936946,49.8089956 L382.778172,99.2220469 L423.012514,157.493852 L378.258807,157.493852 L348.682966,104.165352 L348.283023,104.165352 L348.283023,157.489853 L311.316221,157.489853 L311.316221,2.45565467 Z M292.418879,80.5966661 C285.639832,76.4772454 278.884782,74.6175069 270.050024,74.6175069 C254.024278,74.6175069 241.70601,85.7879361 241.70601,104.381321 C241.70601,121.514912 256.07199,132.677342 272.097736,132.677342 C280.520552,132.677342 288.935368,130.829602 295.102501,127.522067 L295.918386,155.214173 C286.687685,158.309738 275.589245,159.977503 265.722633,159.977503 C230.407599,159.977503 203.511381,139.292412 203.511381,103.745411 C203.511381,67.9784405 230.411598,47.317346 265.726632,47.317346 C276.821072,47.317346 286.683685,49.2010811 295.102501,53.3285007 L292.418879,80.5966661 L292.418879,80.5966661 Z M154.886219,157.481854 L191.829024,157.481854 L191.829024,49.8049962 L154.886219,49.8049962 L154.886219,157.481854 Z M154.886219,32.2434658 L191.829024,32.2434658 L191.829024,4.94330485 L154.886219,4.94330485 L154.886219,32.2434658 L154.886219,32.2434658 Z M99.7979659,157.485854 L136.768767,157.485854 L136.768767,2.45565467 L99.7979659,2.45565467 L99.7979659,157.485854 L99.7979659,157.485854 Z M21.7569404,75.8293365 L2.84217094e-14,75.8293365 L2.84217094e-14,49.8049962 L22.3808527,49.8049962 L22.3808527,43.2059242 C22.3808527,11.1664297 37.3707447,0 66.9345873,0 C74.9454608,0 81.1085941,1.24382509 85.8279304,2.05971035 L83.5602493,27.6961052 C80.4886813,26.6602509 77.4091143,26.0243403 71.8498961,26.0243403 C62.4112234,26.0243403 58.7317408,32.6434095 58.7317408,43.2019247 L58.7317408,49.8049962 L85.0080457,49.8049962 L85.0080457,75.8293365 L58.7317408,75.8293365 L58.7317408,157.485854 L21.7569404,157.485854 L21.7569404,75.8293365 Z" fill="#005FDD"></path>
    </g>
</svg>

<svg viewBox="0 0 512 160" xmlns="http://www.w3.org/2000/svg"><path fill="#FF0082" d="M510.16 79.56c-4.11-1.26-8.22-1.26-12.53-1.26 -17.26 0-26.92 12.62-26.92 33.71v45.46h-36.94V49.79h33.67v19.84h.39c6.37-13.66 15.62-22.34 31.63-22.34 4.3 0 8.83.61 12.51 1.25l-1.84 30.99"/><path fill="#005FDD" d="M311.31 2.45h36.96v92.61h.39l30.8-45.26h40.44l-37.16 49.41 40.23 58.27h-44.76l-29.58-53.33h-.4v53.32h-36.97V2.43Zm-18.9 78.14c-6.78-4.12-13.54-5.98-22.37-5.98 -16.03 0-28.35 11.17-28.35 29.76 0 17.13 14.36 28.29 30.39 28.29 8.42 0 16.83-1.85 23-5.16l.81 27.69c-9.24 3.09-20.33 4.76-30.2 4.76 -35.32 0-62.22-20.69-62.22-56.24 0-35.77 26.9-56.43 62.21-56.43 11.09 0 20.95 1.88 29.37 6.01l-2.69 27.26v0Zm-137.54 76.88h36.94V49.79h-36.95v107.67Zm0-125.24h36.94V4.92h-36.95v27.3 0ZM99.78 157.47h36.97V2.43H99.77v155.03 0ZM21.73 75.81H-.03V49.78h22.38v-6.6C22.35 11.14 37.33-.03 66.9-.03c8.01 0 14.17 1.24 18.89 2.05l-2.27 25.63c-3.08-1.04-6.16-1.68-11.72-1.68 -9.44 0-13.12 6.61-13.12 17.17v6.6h26.27v26.02H58.67v81.65H21.69V75.75Z"/></svg>
